icons/1_Primary/No-IP.svg

<svg width="1024" height="1024" viewBox="0 0 1024 1024" fill="none" xmlns="http://www.w3.org/2000/svg">
<g clip-path="url(#clip0_2_2958)">
<path d="M512 1024C794.77 1024 1024 794.77 1024 512C1024 229.23 794.77 0 512 0C229.23 0 0 229.23 0 512C0 794.77 229.23 1024 512 1024Z" fill="#98DC9A"/>
<path d="M801.07 511.84C801.483 493.062 799.782 474.298 796 455.9C787.689 413.862 769.992 374.243 744.23 340L743.23 338.71L741.88 336.93C715.1 301.728 680.583 273.156 640.998 253.424C601.413 233.691 557.82 223.326 513.59 223.13H512.09C352.49 223.13 223.09 352.55 223.09 512.18V514.89C223.583 576.872 244.072 637.039 281.51 686.44L282.68 687.96C283.82 689.52 284.98 691 286.16 692.4C315.208 729.283 352.867 758.471 395.83 777.4C423.066 789.279 451.913 797.054 481.43 800.47C488.98 800.77 496.53 800.96 504.08 801.08H512.59C523.29 801.08 534 800.87 544.68 800.29C596.487 794.375 645.739 774.59 687.24 743.02C703.04 731.82 715.91 717.31 729.52 703.56C771.479 656.148 796.545 596.169 800.8 533C800.94 526.17 801.06 519.33 801.06 512.48L801.07 511.84ZM646.83 458.94C672.54 483.94 675.18 528.76 651.83 556.27C623.97 590.27 569.9 594.77 533.98 571.42L528.82 567.8L530.29 566.33C567.4 529.14 604.77 492.19 641.65 454.76C643.43 456.09 645.13 457.52 646.84 458.94H646.83ZM281.51 644.59C252.44 595.29 241.22 535.99 248.51 479.47C255.51 419.28 284.9 362.59 328.34 320.47C342.34 347.19 383.75 350.47 403.12 328.3C416.77 312.03 412.66 285.41 395.12 273.72C441.361 250.867 493.268 242.011 544.47 248.24C579.52 252.05 613.39 263.97 644.21 280.96C622.64 303.45 600.09 325.02 578.33 347.35C567.46 358.1 556.99 369.35 545.61 379.68C537.2 384.68 527.48 387.23 519.48 393.08C509.99 398.62 502.7 406.89 494.66 414.08C493.28 402.39 491.79 390.52 489.99 378.78C467.46 378.9 444.93 378.78 422.41 378.78C422.04 419.87 422.71 460.99 422.08 502.06C417.99 509.49 410.16 514.47 404.58 520.9C404.79 473.14 404.58 425.41 404.58 377.66C380.42 377.52 356.25 377.66 332.13 377.66V593.49C320.797 604.977 309.4 616.407 297.94 627.78C292.42 633.3 286.82 638.78 281.51 644.59ZM363.65 733.84C382.937 713.84 402.567 694.173 422.54 674.84C422.54 679.84 422.4 684.91 422.54 689.96C422.54 714.39 422.17 738.84 422.75 763.26C401.6 756.6 382.2 745.57 363.65 733.81V733.84ZM754.56 624C732.025 673.053 695.151 714.124 648.801 741.795C602.451 769.466 548.802 782.438 494.93 779C494.74 726.55 495.09 674.07 494.72 621.61C493.88 618.31 496.12 615.88 497.38 613.2C508.38 629.98 528.44 637.81 546.95 643.2C588.9 653.83 635.45 650.49 673.83 629.71C689.099 621.281 702.471 609.801 713.113 595.983C723.755 582.165 731.44 566.305 735.69 549.39C745.32 511.99 740.69 470.15 719.33 437.47C712.306 426.7 703.757 417.006 693.95 408.69L691.08 405.23C705.08 391.53 719.08 377.79 732.54 363.65C785.43 438.22 793.23 541.32 754.54 623.93L754.56 624Z" fill="white"/>
</g>
<defs>
<clipPath id="clip0_2_2958">
<rect width="1024" height="1024" fill="white"/>
</clipPath>
</defs>
</svg>

<svg xmlns="http://www.w3.org/2000/svg" viewBox="0 0 1024 1024">
   <circle cx="512" cy="512" r="512" style="fill:#8dbd09"/>
   <path d="M801.07 511.84A250.47 250.47 0 0 0 796 455.9 284.58 284.58 0 0 0 744.23 340l-1-1.29-1.35-1.78a288.45 288.45 0 0 0-228.29-113.8h-1.5c-159.6 0-289 129.42-289 289.05v2.71a287.82 287.82 0 0 0 58.42 171.55l1.17 1.52q1.71 2.34 3.48 4.44a286.78 286.78 0 0 0 109.67 85 300.53 300.53 0 0 0 85.6 23.07c7.55.3 15.1.49 22.65.61h8.51c10.7 0 21.41-.21 32.09-.79a289.75 289.75 0 0 0 142.56-57.27c15.8-11.2 28.67-25.71 42.28-39.46A286.4 286.4 0 0 0 800.8 533c.14-6.83.26-13.67.26-20.52Zm-154.24-52.9c25.71 25 28.35 69.82 5 97.33-27.86 34-81.93 38.5-117.85 15.15l-5.16-3.62 1.47-1.47c37.11-37.19 74.48-74.14 111.36-111.57 1.78 1.33 3.48 2.76 5.19 4.18ZM281.51 644.59c-29.07-49.3-40.29-108.6-33-165.12 7-60.19 36.39-116.88 79.83-159 14 26.72 55.41 30 74.78 7.83 13.65-16.27 9.54-42.89-8-54.58a264.89 264.89 0 0 1 149.35-25.48c35.05 3.81 68.92 15.73 99.74 32.72-21.57 22.49-44.12 44.06-65.88 66.39-10.87 10.75-21.34 22-32.72 32.33-8.41 5-18.13 7.55-26.13 13.4-9.49 5.54-16.78 13.81-24.82 21-1.38-11.69-2.87-23.56-4.67-35.3-22.53.12-45.06 0-67.58 0-.37 41.09.3 82.21-.33 123.28-4.09 7.43-11.92 12.41-17.5 18.84.21-47.76 0-95.49 0-143.24-24.16-.14-48.33 0-72.45 0v215.83q-17 17.23-34.19 34.29c-5.52 5.52-11.12 11-16.43 16.81Zm82.14 89.25q28.93-30 58.89-59c0 5-.14 10.07 0 15.12 0 24.43-.37 48.88.21 73.3-21.15-6.66-40.55-17.69-59.1-29.45ZM754.56 624a267 267 0 0 1-259.63 155c-.19-52.45.16-104.93-.21-157.39-.84-3.3 1.4-5.73 2.66-8.41 11 16.78 31.06 24.61 49.57 30 41.95 10.63 88.5 7.29 126.88-13.49a127.13 127.13 0 0 0 61.86-80.32c9.63-37.4 5-79.24-16.36-111.92a133 133 0 0 0-25.38-28.78l-2.87-3.46c14-13.7 28-27.44 41.46-41.58 52.89 74.57 60.69 177.67 22 260.28Z" style="fill:#fff"/>
</svg>
